svgs/light/popcorn.svg

<svg xmlns="http://www.w3.org/2000/svg" viewBox="0 0 448 512"><!--! Font Awesome Pro 6.3.0 by @fontawesome - https://fontawesome.com License - https://fontawesome.com/license (Commercial License) Copyright 2023 Fonticons, Inc. --><path d="M444.8 198.3C441.7 194.3 437 192 432 192h-416C11 192 6.281 194.3 3.25 198.3c-3 3.984-4 9.156-2.656 13.97l80 288C82.5 507.2 88.81 512 96 512h256c7.188 0 13.5-4.797 15.41-11.72l80-288C448.8 207.5 447.8 202.3 444.8 198.3zM339.8 480H108.2L37.06 224h61.06l30.04 210.3C129.3 442.3 136.2 448 143.1 448c.75 0 1.531-.0469 2.281-.1562c8.75-1.25 14.84-9.359 13.59-18.11L130.5 224L208 224V432c0 8.844 7.156 16 16 16s16-7.156 16-16V224L317.5 224l-29.39 205.7c-1.25 8.75 4.844 16.86 13.59 18.11C302.5 447.1 303.3 448 304 448c7.812 0 14.66-5.75 15.81-13.73L349.9 224h61.06L339.8 480zM22.41 147.1c5.969-10.73 15.41-19.09 26.72-24.06C47.5 111.3 49.75 99.03 55.94 88.5c9.625-16.83 27.12-27.36 46.31-28.75c5.719-16.83 19.41-30.42 37.44-35.95c11.88-3.844 24.75-3.719 36.5 .125c7.219-10 17.56-17.53 29.59-21.25c25.16-7.547 51.69 1.75 65.81 21.28c11.88-3.922 24.84-4.062 36.91-.2187c18 5.656 31.66 19.27 37.31 36.03c19.16 1.406 36.66 11.95 46.34 28.91c6.062 10.66 8.281 22.69 6.656 34.34c11 4.891 20.34 13.11 26.59 23.73c4.5 7.609 1.938 17.42-5.656 21.89c-7.625 4.422-17.44 1.984-21.91-5.672c-4.375-7.391-12.09-12.23-20.66-12.92c-5.406-.4531-10.22-3.609-12.78-8.391c-2.562-4.797-2.531-10.55 .0938-15.31c3.781-6.844 3.719-15.02-.1562-21.83c-5.438-9.547-17.28-14.64-28.59-12.36c-4.625 1-9.5-.2656-13.19-3.25s-5.875-7.453-5.938-12.2c-.1562-10.14-7.312-19.17-17.81-22.47c-8.344-2.672-17.66-1.172-24.75 4.062c-4.812 3.594-11.28 4.203-16.75 1.469c-4.25-2.141-7.281-6.031-8.375-10.53c-.0625-.2187-.1562-.4375-.2187-.6562C244.4 35.84 229.4 29 215.2 33.28C207.2 35.72 200.9 42 198.4 50.06C196.8 54.97 193 58.83 188.1 60.42C183.2 62.02 177.8 61.17 173.7 58.14c-7-5.094-16.16-6.5-24.38-3.828C138.7 57.56 131.6 66.59 131.4 76.83c-.125 4.734-2.312 9.156-6 12.12C121.7 91.89 116.9 93.16 112.3 92.16C100.9 89.89 89.09 94.97 83.66 104.5c-4 6.781-4.031 15.02-.25 21.66C86.09 130.9 86.19 136.7 83.69 141.5S76.38 149.5 70.97 150c-8.844 .8125-16.75 5.641-20.62 12.61C47.44 167.9 41.97 170.9 36.38 170.9c-2.656 0-5.312-.6406-7.781-2.016C20.88 164.5 18.09 154.8 22.41 147.1z"/></svg>

<svg xmlns="http://www.w3.org/2000/svg" viewBox="0 0 448 512"><!-- Font Awesome Pro 6.0.0-alpha2 by @fontawesome - https://fontawesome.com License - https://fontawesome.com/license (Commercial License) --><path d="M444.742 198.312C441.711 194.344 436.992 192 431.992 192H15.992C10.992 192 6.274 194.344 3.242 198.312C0.242 202.297 -0.758 207.469 0.586 212.281L80.586 500.281C82.492 507.203 88.805 512 95.992 512H351.992C359.18 512 365.492 507.203 367.399 500.281L447.399 212.281C448.742 207.469 447.742 202.297 444.742 198.312ZM339.836 480H108.149L37.055 224H98.112L128.149 434.266C129.305 442.25 136.149 448 143.961 448C144.711 448 145.492 447.953 146.242 447.844C154.992 446.594 161.086 438.484 159.836 429.734L130.446 224H207.992V432C207.992 440.844 215.149 448 223.992 448S239.992 440.844 239.992 432V224H317.539L288.149 429.734C286.899 438.484 292.992 446.594 301.742 447.844C302.492 447.953 303.274 448 304.024 448C311.836 448 318.68 442.25 319.836 434.266L349.873 224H410.93L339.836 480ZM22.399 147.078C28.367 136.344 37.805 127.984 49.117 123.016C47.492 111.25 49.742 99.031 55.93 88.5C65.555 71.672 83.055 61.141 102.242 59.75C107.961 42.922 121.649 29.328 139.68 23.797C151.555 19.953 164.43 20.078 176.18 23.922C183.399 13.922 193.742 6.391 205.774 2.672C230.93 -4.875 257.461 4.422 271.586 23.953C283.461 20.031 296.43 19.891 308.492 23.734C326.492 29.391 340.149 43 345.805 59.766C364.961 61.172 382.461 71.719 392.149 88.672C398.211 99.328 400.43 111.359 398.805 123.016C409.805 127.906 419.149 136.125 425.399 146.75C429.899 154.359 427.336 164.172 419.742 168.641C412.117 173.062 402.305 170.625 397.836 162.969C393.461 155.578 385.742 150.734 377.18 150.047C371.774 149.594 366.961 146.437 364.399 141.656C361.836 136.859 361.867 131.109 364.492 126.344C368.274 119.5 368.211 111.328 364.336 104.516C358.899 94.969 347.055 89.875 335.742 92.156C331.117 93.156 326.242 91.891 322.555 88.906S316.68 81.453 316.617 76.703C316.461 66.562 309.305 57.531 298.805 54.234C290.461 51.562 281.149 53.062 274.055 58.297C269.242 61.891 262.774 62.5 257.305 59.766C253.055 57.625 250.024 53.734 248.93 49.234C248.867 49.016 248.774 48.797 248.711 48.578C244.399 35.844 229.399 29 215.149 33.281C207.211 35.719 200.93 42 198.367 50.062C196.805 54.969 192.992 58.828 188.086 60.422C183.211 62.016 177.836 61.172 173.68 58.141C166.68 53.047 157.524 51.641 149.305 54.312C138.711 57.562 131.586 66.594 131.367 76.828C131.242 81.562 129.055 85.984 125.367 88.953C121.711 91.891 116.93 93.156 112.242 92.156C100.867 89.891 89.086 94.969 83.649 104.516C79.649 111.297 79.617 119.531 83.399 126.172C86.086 130.891 86.18 136.656 83.68 141.484S76.367 149.531 70.961 150.031C62.117 150.844 54.211 155.672 50.336 162.641C47.43 167.891 41.961 170.859 36.367 170.859C33.711 170.859 31.055 170.219 28.586 168.844C20.867 164.547 18.086 154.812 22.399 147.078Z"/></svg>
